static/img/menus/ico-refresh.svg

<svg width="16" height="16" viewBox="0 0 16 16" fill="none" xmlns="http://www.w3.org/2000/svg">
<path d="M14.7409 7.66917L14.9982 5.05158C15.0267 4.75342 14.7124 4.5497 14.4261 4.68551L13.7685 4.99747C12.6388 3.20687 10.5658 2 8.20698 2C5.29009 2 2.83117 3.83081 2.01645 6.34029C1.94487 6.54348 2.11655 6.761 2.34527 6.761L3.16005 6.761C3.30321 6.761 3.43183 6.67983 3.47433 6.55781C4.1605 4.71315 6.03332 3.38364 8.20649 3.38364C9.9937 3.38364 11.5808 4.27865 12.4672 5.62149L11.8096 5.93345C11.5378 6.06926 11.5238 6.43533 11.7811 6.58442L14.1544 7.94099C14.3976 8.09008 14.7119 7.94099 14.741 7.66936L14.7409 7.66917Z" fill="currentColor"/>
<path d="M7.79971 15C10.7135 15 13.1697 12.8632 13.9836 9.9343C14.0551 9.69715 13.8836 9.44327 13.6551 9.44327L12.8412 9.44327C12.6982 9.44327 12.5697 9.53801 12.5273 9.68042C11.8418 11.8334 9.97102 13.3851 7.80019 13.3851C6.01491 13.3851 4.42954 12.3405 3.54405 10.7732L4.20099 10.4091C4.47247 10.2506 4.48644 9.82337 4.22948 9.64937L1.85873 8.06606C1.61573 7.89206 1.28726 8.08216 1.25877 8.39858L1.00181 11.4537C0.973316 11.8017 1.28726 12.0394 1.57327 11.8809L2.23021 11.5168C3.37203 13.5905 5.44284 14.9999 7.79958 14.9999L7.79971 15Z" fill="currentColor"/>
</svg>

<svg xmlns="http://www.w3.org/2000/svg" width="16" height="16" fill="none" viewBox="0 0 16 16"><path fill="currentColor" d="m14.74 7.67.258-2.618c.029-.299-.286-.502-.572-.366l-.658.311C12.639 3.207 10.567 2 8.208 2 5.29 2 2.831 3.83 2.017 6.34c-.072.203.1.421.328.421h.815c.143 0 .272-.081.314-.203.686-1.845 2.56-3.174 4.732-3.174 1.788 0 3.375.895 4.261 2.237l-.657.312a.367.367 0 0 0-.029.651l2.373 1.357c.244.15.558 0 .587-.272M7.8 15c2.914 0 5.37-2.137 6.184-5.066.071-.237-.1-.49-.329-.49h-.814a.33.33 0 0 0-.314.236c-.685 2.153-2.556 3.705-4.727 3.705-1.785 0-3.37-1.044-4.256-2.612l.657-.364c.271-.158.285-.586.028-.76L1.86 8.066c-.243-.174-.572.016-.6.333l-.257 3.055c-.029.348.285.585.571.427l.657-.364C3.372 13.59 5.443 15 7.8 15"/></svg>
